X: 34533
T: Ril Na Drithleog
R: reel
M: 4/4
K: Gmajor
ge|:dB B2 dBGB|dB({d}BA) Bdge|d(B ~B2) dBG(B|cB)ce agfe|
d(B ~B2) dBG(A|BA)B(d gf)ga|bagb agf(a|1 gf)ga bage:|2 gfed Bee(f||
g2)bg fga(f|ga)fg edBd|g/g/g bg (fg)af|({a}g)fed Bee(f|g2) bg fga(f|
ga)fg edB(d|gf)ga bga(f|1 {a}gf)ed Bee(f:|2 {a}gf)ed Bdge||

